!!!COM: Music21
!!!OTL: slide_Deils-Awa-Wi-ThExciseman--The
!!!OMV: slide_Deils-Awa-Wi-ThExciseman--The
**kern
*clefG2
*k[f#]
*G:
*M12/8
=1
4g
8dd
8ddL
8ee
8ddJ
4cc
8b
8aL
8b
8ccJ
=
4dd
8g
8gL
8g
8aJ
4.b
4.dd
=
4g
8dd
8ddL
8ee
8ddJ
4cc
8b
8aL
8b
8ccJ
=
4dd
8g
8gL
8g
8aJ
4.b
4dd
8d
!!linebreak:original
=||
4b
8b
4g
8g
4a
8a
4d
8d
=
8gL
8g
8gJ
4g
8a
4.b
4dd
8d
=
4b
8b
4g
8g
4a
8a
8ff#
4ryy
=
4gg
8g
8gL
8g
8aJ
4.b
4.dd
=||
*-
